assets/download.svg

<?xml version="1.0" encoding="UTF-8"?>
<svg version="1.1" viewBox="0 0 24 16" xmlns="http://www.w3.org/2000/svg">
<title>cloud_download</title>
<desc>Created with Sketch.</desc>
<g fill="none" fill-rule="evenodd">
<g transform="translate(-372 -2284)">
<g transform="translate(100 2226)">
<g transform="translate(272 54)">
<polygon points="0 0 24 0 24 24 0 24"/>
<path d="m19.35 10.04c-0.68-3.45-3.71-6.04-7.35-6.04-2.89 0-5.4 1.64-6.65 4.04-3.01 0.32-5.35 2.87-5.35 5.96 0 3.31 2.69 6 6 6h13c2.76 0 5-2.24 5-5 0-2.64-2.05-4.78-4.65-4.96zm-2.35 2.96-4.65 4.65c-0.2 0.2-0.51 0.2-0.71 0l-4.64-4.65h3v-4h4v4h3z" fill="#1D1D1D"/>
</g>
</g>
</g>
</g>
</svg>

<?xml version="1.0" encoding="UTF-8"?>
<svg width="24px" height="16px" viewBox="0 0 24 16" version="1.1" xmlns="http://www.w3.org/2000/svg" xmlns:xlink="http://www.w3.org/1999/xlink">
    <!-- Generator: Sketch 52.5 (67469) - http://www.bohemiancoding.com/sketch -->
    <title>cloud_download</title>
    <desc>Created with Sketch.</desc>
    <g id="Icons" stroke="none" stroke-width="1" fill="none" fill-rule="evenodd">
        <g id="Rounded" transform="translate(-372.000000, -2284.000000)">
            <g id="File" transform="translate(100.000000, 2226.000000)">
                <g id="-Round-/-File-/-cloud_download" transform="translate(272.000000, 54.000000)">
                    <g>
                        <polygon id="Path" points="0 0 24 0 24 24 0 24"></polygon>
                        <path d="M19.35,10.04 C18.67,6.59 15.64,4 12,4 C9.11,4 6.6,5.64 5.35,8.04 C2.34,8.36 0,10.91 0,14 C0,17.31 2.69,20 6,20 L19,20 C21.76,20 24,17.76 24,15 C24,12.36 21.95,10.22 19.35,10.04 Z M17,13 L12.35,17.65 C12.15,17.85 11.84,17.85 11.64,17.65 L7,13 L10,13 L10,9 L14,9 L14,13 L17,13 Z" id="🔹-Icon-Color" fill="#1D1D1D"></path>
                    </g>
                </g>
            </g>
        </g>
    </g>
</svg>
